svg/sph4u/railcar-sketch.svg

<svg xmlns="http://www.w3.org/2000/svg" viewBox="0 0 400 137.967" xml:space="preserve"><path fill="none" stroke="#000" stroke-miterlimit="10" d="M0 8.5h400M0 68.5h400M375.5 8v60M315.5 8v60M255.5 8v60M195.5 8v60M135.5 8v60M381.5 8v60M321.5 8v60M261.5 8v60M201.5 8v60M141.5 8v60"/><path fill="#FFF" stroke="#000" stroke-width="2" stroke-miterlimit="10" d="M7 1h83v76H7z"/><path fill="none" stroke="#000" stroke-miterlimit="10" d="m265.505 112.568-2.762-1.173"/><path fill="none" stroke="#000" stroke-miterlimit="10" stroke-dasharray="5.9217,5.9217" d="M257.292 109.082 96.487 40.829"/><path fill="none" stroke="#000" stroke-miterlimit="10" d="M93.762 39.672 91 38.5h3"/><path fill="none" stroke="#000" stroke-miterlimit="10" stroke-dasharray="6,6" d="M100 38.5h165"/><path fill="none" stroke="#000" stroke-miterlimit="10" d="M268 38.5h3"/><path d="m264.366 108.061.002 4.024-2.895 2.794 9.527.021z"/><text transform="translate(153.667 60.933)" font-family="'Concourse T3'" font-size="24">23º</text><text transform="translate(19.82 46.32)" font-family="'Concourse T3'" font-size="24">railcar</text><text transform="translate(278 127.518)" font-family="'Equity Text B'" font-weight="bold" font-size="24" letter-spacing="-2">F</text><text transform="matrix(.583 0 0 .583 290.552 131.51)" font-family="'Equity Text B'" font-size="24">a</text></svg>

<svg xmlns="http://www.w3.org/2000/svg" viewBox="0 0 400 137.967" xml:space="preserve"><path fill="none" stroke="#000" stroke-miterlimit="10" d="M0 8.5h400M0 68.5h400M375.5 8v60m-60-60v60m-60-60v60m-60-60v60m-60-60v60m246-60v60m-60-60v60m-60-60v60m-60-60v60m-60-60v60"/><path fill="#FFF" stroke="#000" stroke-width="2" stroke-miterlimit="10" d="M7 1h83v76H7z"/><path fill="none" stroke="#000" stroke-miterlimit="10" d="m265.505 112.568-2.762-1.173"/><path fill="none" stroke="#000" stroke-miterlimit="10" stroke-dasharray="5.9217,5.9217" d="M257.292 109.082 96.487 40.829"/><path fill="none" stroke="#000" stroke-miterlimit="10" d="M93.762 39.672 91 38.5h3"/><path fill="none" stroke="#000" stroke-miterlimit="10" stroke-dasharray="6,6" d="M100 38.5h165"/><path fill="none" stroke="#000" stroke-miterlimit="10" d="M268 38.5h3"/><path d="m264.366 108.061.002 4.024-2.895 2.794 9.527.021z"/><text transform="translate(153.667 60.933)" font-family="'Concourse T3'" font-size="24">23º</text><text transform="translate(19.82 46.32)" font-family="'Concourse T3'" font-size="24">railcar</text><text transform="translate(278 127.518)" font-family="'Equity Text B'" font-weight="bold" font-size="24" letter-spacing="-2">F</text><text transform="matrix(.583 0 0 .583 290.552 131.51)" font-family="'Equity Text B'" font-size="24">a</text></svg>
